packages/dnb-ui-lib/assets/icons/arrow_up.svg

<svg width="16" height="16" viewBox="0 0 16 16" fill="none" xmlns="http://www.w3.org/2000/svg">
<path d="M2.46967 5.71967C2.17678 6.01256 2.17678 6.48744 2.46967 6.78033C2.76256 7.07322 3.23744 7.07322 3.53033 6.78033L2.46967 5.71967ZM8 1.25L8.53033 0.71967C8.23744 0.426777 7.76256 0.426777 7.46967 0.71967L8 1.25ZM12.4697 6.78033C12.7626 7.07322 13.2374 7.07322 13.5303 6.78033C13.8232 6.48744 13.8232 6.01256 13.5303 5.71967L12.4697 6.78033ZM7.25 14.75C7.25 15.1642 7.58579 15.5 8 15.5C8.41421 15.5 8.75 15.1642 8.75 14.75H7.25ZM3.53033 6.78033L8.53033 1.78033L7.46967 0.71967L2.46967 5.71967L3.53033 6.78033ZM7.46967 1.78033L12.4697 6.78033L13.5303 5.71967L8.53033 0.71967L7.46967 1.78033ZM8.75 14.75V1.25H7.25V14.75H8.75Z" fill="black"/>
</svg>

<svg width="16" height="16" viewBox="0 0 16 16" fill="none" xmlns="http://www.w3.org/2000/svg"><path d="M2.47 5.72a.75.75 0 001.06 1.06L2.47 5.72zM8 1.25l.53-.53a.75.75 0 00-1.06 0l.53.53zm4.47 5.53a.75.75 0 101.06-1.06l-1.06 1.06zm-5.22 7.97a.75.75 0 001.5 0h-1.5zM3.53 6.78l5-5L7.47.72l-5 5 1.06 1.06zm3.94-5l5 5 1.06-1.06-5-5-1.06 1.06zm1.28 12.97V1.25h-1.5v13.5h1.5z" fill="#000"/></svg>
